packages/app/public/assets/images/empty-state-stacks-coins.svg

<svg width="206" height="148" viewBox="0 0 206 148" fill="none" xmlns="http://www.w3.org/2000/svg">
<mask id="path-1-inside-1_753_23084" fill="white">
<path fill-rule="evenodd" clip-rule="evenodd" d="M-0.000101072 109.883L-0.000101072 94.3536H1.49165e-10C1.49165e-10 94.3535 0 94.3535 0 94.3535C0 74.3413 27.8111 58.1182 62.1177 58.1182C96.4244 58.1182 124.235 74.3413 124.235 94.3535C124.235 94.3753 124.235 94.3971 124.235 94.4189V109.835C124.235 109.851 124.235 109.867 124.235 109.883C124.235 129.895 96.4244 146.118 62.1177 146.118C27.811 146.118 3.78038e-07 129.895 -4.20323e-05 109.883H-0.000101072Z"/>
</mask>
<path fill-rule="evenodd" clip-rule="evenodd" d="M-0.000101072 109.883L-0.000101072 94.3536H1.49165e-10C1.49165e-10 94.3535 0 94.3535 0 94.3535C0 74.3413 27.8111 58.1182 62.1177 58.1182C96.4244 58.1182 124.235 74.3413 124.235 94.3535C124.235 94.3753 124.235 94.3971 124.235 94.4189V109.835C124.235 109.851 124.235 109.867 124.235 109.883C124.235 129.895 96.4244 146.118 62.1177 146.118C27.811 146.118 3.78038e-07 129.895 -4.20323e-05 109.883H-0.000101072Z" fill="white"/>
<path d="M-0.000101072 94.3536H-0.981286L-0.981286 93.3724H-0.000101072L-0.000101072 94.3536ZM-0.000101072 109.883L-0.000101072 110.864H-0.981286L-0.981286 109.883H-0.000101072ZM1.49165e-10 94.3536H0.981185L0.981185 95.3348H1.49165e-10L1.49165e-10 94.3536ZM124.235 94.4189H123.254L123.254 94.4159L124.235 94.4189ZM124.235 109.835L123.254 109.837V109.835H124.235ZM-4.20323e-05 109.883L-4.20323e-05 108.902H0.981141L0.981143 109.883L-4.20323e-05 109.883ZM0.981084 94.3536L0.981084 109.883H-0.981286L-0.981286 94.3536H0.981084ZM1.49165e-10 95.3348H-0.000101072L-0.000101072 93.3724H1.49165e-10L1.49165e-10 95.3348ZM-0.981185 94.3536C-0.981185 94.3536 -0.981185 94.3535 -0.981185 94.3535C-0.981185 94.3535 -0.981185 94.3535 -0.981185 94.3535H0.981185C0.981185 94.3535 0.981185 94.3535 0.981185 94.3535C0.981185 94.3535 0.981185 94.3536 0.981185 94.3536H-0.981185ZM-0.981185 94.3535C-0.981185 83.8535 6.30755 74.529 17.6995 67.8837C29.1155 61.2244 44.8219 57.137 62.1177 57.137V59.0993C45.1069 59.0993 29.7544 63.1235 18.6883 69.5788C7.59798 76.0481 0.981185 84.8412 0.981185 94.3535H-0.981185ZM62.1177 57.137C79.4136 57.137 95.12 61.2244 106.536 67.8837C117.928 74.529 125.217 83.8535 125.217 94.3535H123.254C123.254 84.8412 116.637 76.0481 105.547 69.5788C94.481 63.1235 79.1286 59.0993 62.1177 59.0993V57.137ZM125.217 94.3535C125.217 94.3762 125.217 94.3991 125.217 94.422L123.254 94.4159C123.254 94.3952 123.254 94.3744 123.254 94.3535H125.217ZM123.254 109.835V94.4189H125.217V109.835H123.254ZM125.217 109.833C125.217 109.85 125.217 109.866 125.217 109.883H123.254C123.254 109.868 123.254 109.852 123.254 109.837L125.217 109.833ZM125.217 109.883C125.217 120.383 117.928 129.707 106.536 136.353C95.1199 143.012 79.4135 147.099 62.1177 147.099V145.137C79.1285 145.137 94.481 141.113 105.547 134.658C116.637 128.188 123.254 119.395 123.254 109.883H125.217ZM62.1177 147.099C44.8219 147.099 29.1155 143.012 17.6995 136.353C6.30754 129.707 -0.981205 120.383 -0.981227 109.883L0.981143 109.883C0.981163 119.395 7.59796 128.188 18.6882 134.658C29.7544 141.113 45.1069 145.137 62.1177 145.137V147.099ZM-0.000101072 108.902H-4.20323e-05L-4.20323e-05 110.864H-0.000101072L-0.000101072 108.902Z" fill="#C5C9C2" mask="url(#path-1-inside-1_753_23084)"/>
<path d="M62.1177 130.098C79.1998 130.098 94.6408 126.058 105.794 119.552C116.96 113.039 123.745 104.113 123.745 94.3535C123.745 84.5943 116.96 75.6683 105.794 69.155C94.6408 62.6487 79.1998 58.6088 62.1177 58.6088C45.0356 58.6088 29.5947 62.6487 18.4411 69.155C7.27537 75.6683 0.490592 84.5943 0.490592 94.3535C0.490592 104.113 7.27537 113.039 18.4411 119.552C29.5947 126.058 45.0356 130.098 62.1177 130.098Z" fill="#F3F4F2" stroke="#C5C9C2" stroke-width="0.981185"/>
<path d="M62.1182 124.921C78.1305 124.921 92.6029 121.242 103.055 115.32C113.522 109.388 119.863 101.27 119.863 92.4118C119.863 83.5532 113.522 75.4352 103.055 69.5041C92.6029 63.5812 78.1305 59.9023 62.1182 59.9023C46.1058 59.9023 31.6335 63.5812 21.1814 69.5041C10.7147 75.4352 4.3734 83.5532 4.3734 92.4118C4.3734 101.27 10.7147 109.388 21.1814 115.32C31.6335 121.242 46.1058 124.921 62.1182 124.921Z" fill="white" stroke="#C5C9C2" stroke-width="0.981185"/>
<mask id="path-5-inside-2_753_23084" fill="white">
<path fill-rule="evenodd" clip-rule="evenodd" d="M-0.000101072 93.883L-0.000101072 78.3536H1.49165e-10C1.49165e-10 78.3535 0 78.3535 0 78.3535C0 58.3413 27.8111 42.1182 62.1177 42.1182C96.4244 42.1182 124.235 58.3413 124.235 78.3535C124.235 78.3753 124.235 78.3971 124.235 78.4189V93.8349C124.235 93.8509 124.235 93.8669 124.235 93.883C124.235 113.895 96.4244 130.118 62.1177 130.118C27.811 130.118 3.78038e-07 113.895 -4.20323e-05 93.883H-0.000101072Z"/>
</mask>
<path fill-rule="evenodd" clip-rule="evenodd" d="M-0.000101072 93.883L-0.000101072 78.3536H1.49165e-10C1.49165e-10 78.3535 0 78.3535 0 78.3535C0 58.3413 27.8111 42.1182 62.1177 42.1182C96.4244 42.1182 124.235 58.3413 124.235 78.3535C124.235 78.3753 124.235 78.3971 124.235 78.4189V93.8349C124.235 93.8509 124.235 93.8669 124.235 93.883C124.235 113.895 96.4244 130.118 62.1177 130.118C27.811 130.118 3.78038e-07 113.895 -4.20323e-05 93.883H-0.000101072Z" fill="white"/>
<path d="M-0.000101072 78.3536H-0.981286L-0.981286 77.3724H-0.000101072L-0.000101072 78.3536ZM-0.000101072 93.883L-0.000101072 94.8642H-0.981286L-0.981286 93.883H-0.000101072ZM1.49165e-10 78.3536H0.981185L0.981185 79.3348H1.49165e-10L1.49165e-10 78.3536ZM124.235 78.4189H123.254L123.254 78.4159L124.235 78.4189ZM124.235 93.8349L123.254 93.8373V93.8349H124.235ZM-4.20323e-05 93.883L-4.20323e-05 92.9018H0.981141L0.981143 93.883L-4.20323e-05 93.883ZM0.981084 78.3536L0.981084 93.883H-0.981286L-0.981286 78.3536H0.981084ZM1.49165e-10 79.3348H-0.000101072L-0.000101072 77.3724H1.49165e-10L1.49165e-10 79.3348ZM-0.981185 78.3536C-0.981185 78.3536 -0.981185 78.3535 -0.981185 78.3535C-0.981185 78.3535 -0.981185 78.3535 -0.981185 78.3535H0.981185C0.981185 78.3535 0.981185 78.3535 0.981185 78.3535C0.981185 78.3535 0.981185 78.3536 0.981185 78.3536H-0.981185ZM-0.981185 78.3535C-0.981185 67.8535 6.30755 58.529 17.6995 51.8837C29.1155 45.2244 44.8219 41.137 62.1177 41.137V43.0993C45.1069 43.0993 29.7544 47.1235 18.6883 53.5788C7.59798 60.0481 0.981185 68.8412 0.981185 78.3535H-0.981185ZM62.1177 41.137C79.4136 41.137 95.12 45.2244 106.536 51.8837C117.928 58.529 125.217 67.8535 125.217 78.3535H123.254C123.254 68.8412 116.637 60.0481 105.547 53.5788C94.481 47.1235 79.1286 43.0993 62.1177 43.0993V41.137ZM125.217 78.3535C125.217 78.3762 125.217 78.3991 125.217 78.422L123.254 78.4159C123.254 78.3952 123.254 78.3744 123.254 78.3535H125.217ZM123.254 93.8349V78.4189H125.217V93.8349H123.254ZM125.217 93.8326C125.217 93.8495 125.217 93.8663 125.217 93.883H123.254C123.254 93.8676 123.254 93.8523 123.254 93.8373L125.217 93.8326ZM125.217 93.883C125.217 104.383 117.928 113.707 106.536 120.353C95.1199 127.012 79.4135 131.099 62.1177 131.099V129.137C79.1285 129.137 94.481 125.113 105.547 118.658C116.637 112.188 123.254 103.395 123.254 93.883H125.217ZM62.1177 131.099C44.8219 131.099 29.1155 127.012 17.6995 120.353C6.30754 113.707 -0.981205 104.383 -0.981227 93.883L0.981143 93.883C0.981163 103.395 7.59796 112.188 18.6882 118.658C29.7544 125.113 45.1069 129.137 62.1177 129.137V131.099ZM-0.000101072 92.9018H-4.20323e-05L-4.20323e-05 94.8642H-0.000101072L-0.000101072 92.9018Z" fill="#C5C9C2" mask="url(#path-5-inside-2_753_23084)"/>
<path d="M62.1177 114.098C79.1998 114.098 94.6408 110.058 105.794 103.552C116.96 97.0387 123.745 88.1127 123.745 78.3535C123.745 68.5943 116.96 59.6683 105.794 53.155C94.6408 46.6487 79.1998 42.6088 62.1177 42.6088C45.0356 42.6088 29.5947 46.6487 18.4411 53.155C7.27537 59.6683 0.490592 68.5943 0.490592 78.3535C0.490592 88.1127 7.27537 97.0387 18.4411 103.552C29.5947 110.058 45.0356 114.098 62.1177 114.098Z" fill="#F3F4F2" stroke="#C5C9C2" stroke-width="0.981185"/>
<path d="M62.1182 108.921C78.1305 108.921 92.6029 105.242 103.055 99.3195C113.522 93.3884 119.863 85.2704 119.863 76.4118C119.863 67.5532 113.522 59.4352 103.055 53.5041C92.6029 47.5812 78.1305 43.9023 62.1182 43.9023C46.1058 43.9023 31.6335 47.5812 21.1814 53.5041C10.7147 59.4352 4.3734 67.5532 4.3734 76.4118C4.3734 85.2704 10.7147 93.3884 21.1814 99.3195C31.6335 105.242 46.1058 108.921 62.1182 108.921Z" fill="white" stroke="#C5C9C2" stroke-width="0.981185"/>
<mask id="path-9-inside-3_753_23084" fill="white">
<path fill-rule="evenodd" clip-rule="evenodd" d="M77.5416 39.6541L87.5237 27.7579L87.5238 27.7579C87.5238 27.7579 87.5238 27.7579 87.5238 27.7579C100.387 12.4276 132.12 17.8766 158.4 39.9285C184.681 61.9804 195.557 92.2846 182.694 107.615C182.68 107.632 182.666 107.648 182.652 107.665L172.742 119.474C172.732 119.487 172.722 119.499 172.712 119.511C159.848 134.841 128.115 129.392 101.835 107.34C75.5545 85.2886 64.678 54.9844 77.5416 39.6541L77.5416 39.6541Z"/>
</mask>
<path fill-rule="evenodd" clip-rule="evenodd" d="M77.5416 39.6541L87.5237 27.7579L87.5238 27.7579C87.5238 27.7579 87.5238 27.7579 87.5238 27.7579C100.387 12.4276 132.12 17.8766 158.4 39.9285C184.681 61.9804 195.557 92.2846 182.694 107.615C182.68 107.632 182.666 107.648 182.652 107.665L172.742 119.474C172.732 119.487 172.722 119.499 172.712 119.511C159.848 134.841 128.115 129.392 101.835 107.34C75.5545 85.2886 64.678 54.9844 77.5416 39.6541L77.5416 39.6541Z" fill="white"/>
<path d="M87.5237 27.7579L86.7721 27.1272L87.4027 26.3755L88.1544 27.0062L87.5237 27.7579ZM77.5416 39.6541L76.9109 40.4057L76.1592 39.775L76.7899 39.0234L77.5416 39.6541ZM87.5238 27.7579L88.2754 28.3886L87.6447 29.1403L86.8931 28.5096L87.5238 27.7579ZM182.652 107.665L181.9 107.034L181.902 107.032L182.652 107.665ZM172.742 119.474L171.989 118.845L171.991 118.844L172.742 119.474ZM77.5416 39.6541L78.1723 38.9025L78.9239 39.5332L78.2932 40.2848L77.5416 39.6541ZM88.2753 28.3886L78.2932 40.2848L76.7899 39.0234L86.7721 27.1272L88.2753 28.3886ZM86.8931 28.5096L86.893 28.5095L88.1544 27.0062L88.1545 27.0063L86.8931 28.5096ZM86.7721 27.1272C86.7721 27.1272 86.7721 27.1272 86.7722 27.1272C86.7722 27.1272 86.7722 27.1272 86.7722 27.1272L88.2754 28.3886C88.2754 28.3886 88.2754 28.3886 88.2754 28.3886C88.2754 28.3886 88.2754 28.3886 88.2754 28.3886L86.7721 27.1272ZM86.7722 27.1272C93.5214 19.0837 105.099 16.6258 118.097 18.8578C131.123 21.0946 145.782 28.0593 159.031 39.1769L157.77 40.6801C144.739 29.7458 130.391 22.9601 117.765 20.7919C105.111 18.619 94.3898 21.1018 88.2754 28.3886L86.7722 27.1272ZM159.031 39.1769C172.28 50.2944 181.685 63.5214 186.15 75.9609C190.605 88.374 190.195 100.202 183.445 108.246L181.942 106.984C188.056 99.6974 188.64 88.7082 184.303 76.6238C179.975 64.5655 170.801 51.6145 157.77 40.6801L159.031 39.1769ZM183.445 108.246C183.431 108.263 183.416 108.28 183.401 108.298L181.902 107.032C181.915 107.016 181.929 107 181.942 106.984L183.445 108.246ZM171.991 118.844L181.9 107.034L183.403 108.296L173.494 120.105L171.991 118.844ZM173.495 120.103C173.485 120.116 173.474 120.129 173.463 120.142L171.96 118.88C171.97 118.869 171.98 118.857 171.989 118.845L173.495 120.103ZM173.463 120.142C166.714 128.185 155.137 130.643 142.138 128.411C129.113 126.174 114.454 119.21 101.204 108.092L102.466 106.589C115.497 117.523 129.844 124.309 142.471 126.477C155.125 128.65 165.846 126.167 171.96 118.88L173.463 120.142ZM101.204 108.092C87.9549 96.9746 78.5504 83.7476 74.0858 71.3082C69.6306 58.895 70.0408 47.0669 76.79 39.0234L78.2932 40.2848C72.1789 47.5716 71.5955 58.5608 75.9328 70.6452C80.2606 82.7035 89.4346 95.6545 102.466 106.589L101.204 108.092ZM78.1723 38.9025L78.1723 38.9025L76.9109 40.4058L76.9109 40.4057L78.1723 38.9025Z" fill="#C5C9C2" mask="url(#path-9-inside-3_753_23084)"/>
<path d="M112.132 95.0684C125.218 106.049 139.643 112.879 152.37 115.064C165.11 117.252 176.045 114.776 182.318 107.3C188.591 99.8236 189.131 88.6247 184.764 76.458C180.402 64.3045 171.171 51.2845 158.085 40.3043C144.999 29.3242 130.574 22.4937 117.848 20.3084C105.108 18.1207 94.1727 20.5973 87.8996 28.0732C81.6265 35.5492 81.0865 46.7481 85.4532 58.9147C89.8152 71.0682 99.0468 84.0883 112.132 95.0684Z" fill="#F3F4F2" stroke="#C5C9C2" stroke-width="0.981185"/>
<path d="M115.46 91.103C127.726 101.396 141.178 107.88 152.991 110.061C164.822 112.246 174.898 110.103 180.592 103.317C186.286 96.5309 186.647 86.2361 182.441 74.9646C178.241 63.709 169.52 51.5882 157.254 41.2957C144.987 31.0031 131.536 24.5187 119.722 22.3374C107.892 20.153 97.816 22.2956 92.1218 29.0817C86.4276 35.8678 86.0672 46.1626 90.2727 57.434C94.4723 68.6897 103.194 80.8105 115.46 91.103Z" fill="white" stroke="#C5C9C2" stroke-width="0.981185"/>
</svg>

<svg width="206" height="148" fill="none" xmlns="http://www.w3.org/2000/svg"><mask id="a" fill="#fff"><path fill-rule="evenodd" clip-rule="evenodd" d="M0 109.883v-15.53c0-20.012 27.811-36.235 62.118-36.235 34.306 0 62.117 16.223 62.117 36.235V109.883c0 20.012-27.81 36.235-62.117 36.235S0 129.895 0 109.883Z"/></mask><path fill-rule="evenodd" clip-rule="evenodd" d="M0 109.883v-15.53c0-20.012 27.811-36.235 62.118-36.235 34.306 0 62.117 16.223 62.117 36.235V109.883c0 20.012-27.81 36.235-62.117 36.235S0 129.895 0 109.883Z" fill="#fff"/><path d="M0 94.354h-.981v-.982h.98v.982Zm0 15.529v.981h-.981v-.981h.98Zm0-15.53h.981v.982H0v-.981Zm124.235.066h-.981v-.003l.981.003Zm0 15.416-.981.002v-.002h.981ZM0 109.883v-.981h.981v.981H0Zm.981-15.53v15.53H-.98v-15.53H.98ZM0 95.336v-1.963 1.963Zm-.981-.981H.98-.98Zm0 0c0-10.5 7.289-19.825 18.68-26.47 11.416-6.66 27.123-10.747 44.419-10.747v1.962c-17.011 0-32.364 4.025-43.43 10.48C7.598 76.049.981 84.84.981 94.354H-.98Zm63.099-37.217c17.296 0 33.002 4.087 44.418 10.747 11.392 6.645 18.681 15.97 18.681 26.47h-1.963c0-9.513-6.617-18.306-17.707-24.775-11.066-6.455-26.418-10.48-43.43-10.48v-1.962Zm63.099 37.216v.069l-1.963-.006v-.063h1.963Zm-1.963 15.482V94.419h1.963v15.416h-1.963Zm1.963-.002v.05h-1.963v-.046l1.963-.004Zm0 .05c0 10.5-7.289 19.824-18.681 26.47-11.416 6.659-27.123 10.746-44.418 10.746v-1.962c17.01 0 32.363-4.024 43.429-10.479 11.09-6.47 17.707-15.263 17.707-24.775h1.963Zm-63.1 37.216c-17.295 0-33.002-4.087-44.417-10.746-11.392-6.646-18.681-15.97-18.681-26.47H.98c0 9.512 6.617 18.305 17.707 24.775 11.066 6.455 26.419 10.479 43.43 10.479v1.962ZM0 108.902v1.962-1.962Z" fill="#C5C9C2" mask="url(#a)"/><path d="M62.118 130.098c17.082 0 32.523-4.04 43.676-10.546 11.166-6.513 17.951-15.439 17.951-25.199 0-9.759-6.785-18.685-17.951-25.198C94.641 62.649 79.2 58.609 62.118 58.609s-32.523 4.04-43.677 10.546C7.275 75.668.491 84.595.491 94.353c0 9.76 6.784 18.686 17.95 25.199 11.154 6.506 26.595 10.546 43.677 10.546Z" fill="#F3F4F2" stroke="#C5C9C2" stroke-width=".981"/><path d="M62.118 124.921c16.012 0 30.485-3.679 40.937-9.601 10.467-5.932 16.808-14.05 16.808-22.908 0-8.859-6.341-16.977-16.808-22.908-10.452-5.923-24.925-9.602-40.937-9.602-16.012 0-30.485 3.68-40.937 9.602-10.466 5.931-16.808 14.05-16.808 22.908s6.342 16.976 16.808 22.908c10.453 5.922 24.925 9.601 40.937 9.601Z" fill="#fff" stroke="#C5C9C2" stroke-width=".981"/><mask id="b" fill="#fff"><path fill-rule="evenodd" clip-rule="evenodd" d="M0 93.883v-15.53c0-20.012 27.811-36.235 62.118-36.235 34.306 0 62.117 16.223 62.117 36.235V93.883c0 20.012-27.81 36.235-62.117 36.235S0 113.895 0 93.883Z"/></mask><path fill-rule="evenodd" clip-rule="evenodd" d="M0 93.883v-15.53c0-20.012 27.811-36.235 62.118-36.235 34.306 0 62.117 16.223 62.117 36.235V93.883c0 20.012-27.81 36.235-62.117 36.235S0 113.895 0 93.883Z" fill="#fff"/><path d="M0 78.354h-.981v-.982h.98v.982Zm0 15.529v.981h-.981v-.981h.98Zm0-15.53h.981v.982H0v-.981Zm124.235.066h-.981v-.003l.981.003Zm0 15.416-.981.002v-.002h.981ZM0 93.883v-.981h.981v.981H0Zm.981-15.53v15.53H-.98v-15.53H.98ZM0 79.336v-1.963 1.963Zm-.981-.981H.98-.98Zm0 0c0-10.5 7.289-19.825 18.68-26.47 11.416-6.66 27.123-10.747 44.419-10.747v1.962c-17.011 0-32.364 4.025-43.43 10.48C7.598 60.049.981 68.84.981 78.353H-.98Zm63.099-37.217c17.296 0 33.002 4.087 44.418 10.747 11.392 6.645 18.681 15.97 18.681 26.47h-1.963c0-9.513-6.617-18.306-17.707-24.775-11.066-6.456-26.418-10.48-43.43-10.48v-1.962Zm63.099 37.216v.069l-1.963-.006v-.063h1.963Zm-1.963 15.482V78.419h1.963v15.416h-1.963Zm1.963-.002v.05h-1.963v-.046l1.963-.004Zm0 .05c0 10.5-7.289 19.824-18.681 26.47-11.416 6.659-27.123 10.746-44.418 10.746v-1.962c17.01 0 32.363-4.024 43.429-10.479 11.09-6.47 17.707-15.263 17.707-24.775h1.963Zm-63.1 37.216c-17.295 0-33.002-4.087-44.417-10.746-11.392-6.646-18.681-15.97-18.681-26.47H.98c0 9.512 6.617 18.305 17.707 24.775 11.066 6.455 26.419 10.479 43.43 10.479v1.962ZM0 92.902v1.962-1.962Z" fill="#C5C9C2" mask="url(#b)"/><path d="M62.118 114.098c17.082 0 32.523-4.04 43.676-10.546 11.166-6.513 17.951-15.44 17.951-25.199 0-9.759-6.785-18.685-17.951-25.198C94.641 46.649 79.2 42.609 62.118 42.609s-32.523 4.04-43.677 10.546C7.275 59.668.491 68.595.491 78.353c0 9.76 6.784 18.686 17.95 25.199 11.154 6.506 26.595 10.546 43.677 10.546Z" fill="#F3F4F2" stroke="#C5C9C2" stroke-width=".981"/><path d="M62.118 108.921c16.012 0 30.485-3.679 40.937-9.602 10.467-5.93 16.808-14.049 16.808-22.907 0-8.859-6.341-16.977-16.808-22.908-10.452-5.923-24.925-9.602-40.937-9.602-16.012 0-30.485 3.68-40.937 9.602-10.466 5.931-16.808 14.05-16.808 22.908s6.342 16.976 16.808 22.907c10.453 5.923 24.925 9.602 40.937 9.602Z" fill="#fff" stroke="#C5C9C2" stroke-width=".981"/><mask id="c" fill="#fff"><path fill-rule="evenodd" clip-rule="evenodd" d="m77.542 39.654 9.982-11.896c12.863-15.33 44.596-9.881 70.876 12.17 26.281 22.052 37.157 52.357 24.294 67.687l-.042.05-9.91 11.809a1.2 1.2 0 0 1-.03.037c-12.864 15.33-44.597 9.881-70.877-12.171-26.28-22.051-37.157-52.356-24.293-67.686Z"/></mask><path fill-rule="evenodd" clip-rule="evenodd" d="m77.542 39.654 9.982-11.896c12.863-15.33 44.596-9.881 70.876 12.17 26.281 22.052 37.157 52.357 24.294 67.687l-.042.05-9.91 11.809a1.2 1.2 0 0 1-.03.037c-12.864 15.33-44.597 9.881-70.877-12.171-26.28-22.051-37.157-52.356-24.293-67.686Z" fill="#fff"/><path d="m87.524 27.758-.752-.63.63-.753.752.631-.63.752Zm-9.982 11.896-.631.752-.752-.631.63-.752.753.631Zm9.982-11.896.751.63-.63.752-.752-.63.63-.752Zm95.128 79.907-.752-.631.002-.002.75.633Zm-9.91 11.809-.753-.629.002-.001.751.63Zm-95.2-79.82.63-.752.752.631-.63.752-.752-.63ZM88.275 28.39l-9.982 11.896-1.503-1.262 9.982-11.896 1.503 1.262Zm-1.382.12 1.261-1.503-1.26 1.504Zm-.12-1.382 1.502 1.262-1.503-1.262Zm0 0c6.748-8.043 18.326-10.501 31.324-8.27 13.026 2.238 27.685 9.202 40.934 20.32l-1.261 1.503c-13.031-10.934-27.379-17.72-40.005-19.888-12.654-2.173-23.375.31-29.49 7.597l-1.503-1.262Zm72.258 12.05C172.28 50.294 181.685 63.52 186.15 75.96c4.455 12.413 4.045 24.241-2.705 32.285l-1.503-1.262c6.114-7.287 6.698-18.276 2.361-30.36-4.328-12.058-13.502-25.01-26.533-35.944l1.261-1.503Zm24.414 69.069-.044.052-1.499-1.266.04-.048 1.503 1.262Zm-11.454 10.598 9.909-11.81 1.503 1.262-9.909 11.809-1.503-1.261Zm1.504 1.259-.032.039-1.503-1.262a.49.49 0 0 0 .029-.035l1.506 1.258Zm-.032.039c-6.749 8.043-18.326 10.501-31.325 8.269-13.025-2.237-27.684-9.201-40.934-20.319l1.262-1.503c13.031 10.934 27.378 17.72 40.005 19.888 12.654 2.173 23.375-.31 29.489-7.597l1.503 1.262Zm-72.259-12.05C87.954 96.975 78.55 83.748 74.086 71.308 69.63 58.895 70.04 47.067 76.79 39.023l1.503 1.262c-6.114 7.287-6.698 18.276-2.36 30.36 4.328 12.059 13.502 25.01 26.533 35.944l-1.262 1.503Zm-23.032-69.19-1.261 1.504 1.261-1.503Z" fill="#C5C9C2" mask="url(#c)"/><path d="M112.132 95.068c13.086 10.981 27.511 17.811 40.238 19.996 12.74 2.188 23.675-.288 29.948-7.764s6.813-18.675 2.446-30.842c-4.362-12.153-13.593-25.173-26.679-36.154-13.086-10.98-27.511-17.81-40.237-19.996-12.74-2.187-23.675.29-29.948 7.765-6.274 7.476-6.814 18.675-2.447 30.842 4.362 12.153 13.594 25.173 26.679 36.153Z" fill="#F3F4F2" stroke="#C5C9C2" stroke-width=".981"/><path d="M115.46 91.103c12.266 10.293 25.718 16.777 37.531 18.958 11.831 2.185 21.907.042 27.601-6.744 5.694-6.786 6.055-17.08 1.849-28.352-4.2-11.256-12.921-23.377-25.187-33.67-12.267-10.292-25.718-16.776-37.532-18.958-11.83-2.184-21.906-.041-27.6 6.745-5.694 6.786-6.055 17.08-1.85 28.352 4.2 11.256 12.922 23.377 25.188 33.669Z" fill="#fff" stroke="#C5C9C2" stroke-width=".981"/></svg>
